Numix/22/apps/ppa.svg

<?xml version="1.0" encoding="UTF-8" standalone="no"?>
<svg
   xmlns:dc="http://purl.org/dc/elements/1.1/"
   xmlns:cc="http://creativecommons.org/ns#"
   xmlns:rdf="http://www.w3.org/1999/02/22-rdf-syntax-ns#"
   xmlns:svg="http://www.w3.org/2000/svg"
   xmlns="http://www.w3.org/2000/svg"
   xmlns:sodipodi="http://sodipodi.sourceforge.net/DTD/sodipodi-0.dtd"
   xmlns:inkscape="http://www.inkscape.org/namespaces/inkscape"
   viewBox="0 0 22 22"
   id="svg2"
   version="1.1"
   inkscape:version="0.91 r"
   sodipodi:docname="ppa.svg"
   width="22"
   height="22">
  <metadata
     id="metadata85">
    <rdf:RDF>
      <cc:Work
         rdf:about="">
        <dc:format>image/svg+xml</dc:format>
        <dc:type
           rdf:resource="http://purl.org/dc/dcmitype/StillImage" />
        <dc:title></dc:title>
      </cc:Work>
    </rdf:RDF>
  </metadata>
  <sodipodi:namedview
     pagecolor="#ffffff"
     bordercolor="#666666"
     borderopacity="1"
     objecttolerance="10"
     gridtolerance="10"
     guidetolerance="10"
     inkscape:pageopacity="0"
     inkscape:pageshadow="2"
     inkscape:window-width="1920"
     inkscape:window-height="1056"
     id="namedview83"
     showgrid="true"
     inkscape:zoom="27.812867"
     inkscape:cx="15.577675"
     inkscape:cy="14.408914"
     inkscape:window-x="0"
     inkscape:window-y="24"
     inkscape:window-maximized="1"
     inkscape:current-layer="svg2">
    <inkscape:grid
       type="xygrid"
       id="grid4213" />
  </sodipodi:namedview>
  <defs
     id="defs4">
    <linearGradient
       id="linearGradient3764"
       x1="1"
       x2="47"
       gradientUnits="userSpaceOnUse"
       gradientTransform="matrix(0,-1,1,0,-1.5e-6,47.999998)">
      <stop
         stop-color="#e4e4e4"
         stop-opacity="1"
         id="stop7" />
      <stop
         offset="1"
         stop-color="#eee"
         stop-opacity="1"
         id="stop9" />
    </linearGradient>
    <clipPath
       id="clipPath-049320422">
      <g
         transform="translate(0,-1004.3622)"
         id="g12">
        <path
           d="m -24,13 c 0,1.105 -0.672,2 -1.5,2 -0.828,0 -1.5,-0.895 -1.5,-2 0,-1.105 0.672,-2 1.5,-2 0.828,0 1.5,0.895 1.5,2 z"
           transform="matrix(15.333333,0,0,11.5,414.99999,878.8622)"
           id="path14"
           inkscape:connector-curvature="0"
           style="fill:#1890d0" />
      </g>
    </clipPath>
    <clipPath
       id="clipPath-054510414">
      <g
         transform="translate(0,-1004.3622)"
         id="g17">
        <path
           d="m -24,13 c 0,1.105 -0.672,2 -1.5,2 -0.828,0 -1.5,-0.895 -1.5,-2 0,-1.105 0.672,-2 1.5,-2 0.828,0 1.5,0.895 1.5,2 z"
           transform="matrix(15.333333,0,0,11.5,414.99999,878.8622)"
           id="path19"
           inkscape:connector-curvature="0"
           style="fill:#1890d0" />
      </g>
    </clipPath>
  </defs>
  <g
     id="g33"
     transform="matrix(0.5,0,0,0.5,-1,-1.0000002)" />
  <path
     style="opacity:1;fill:#f8c100;fill-opacity:1;fill-rule:nonzero;stroke:none;stroke-width:2;stroke-linecap:butt;stroke-linejoin:miter;stroke-miterlimit:4;stroke-dasharray:none;stroke-dashoffset:0;stroke-opacity:1"
     d="m 11.000001,15.618802 -3.9999999,-2.309401 -1e-7,-4.6188021 4,-2.3094012 4,2.3098021 0,4.6184012 z"
     id="path4241"
     inkscape:connector-curvature="0"
     sodipodi:nodetypes="ccccccc" />
  <path
     style="fill:#cf8c3b;fill-opacity:1;fill-rule:evenodd;stroke:none;stroke-width:1px;stroke-linecap:butt;stroke-linejoin:miter;stroke-opacity:1"
     d="M 16,8.6909998 16,13.309 20,15.5 20,6.4999998 Z"
     id="path4272"
     inkscape:connector-curvature="0"
     sodipodi:nodetypes="ccccc" />
  <path
     sodipodi:nodetypes="ccccc"
     inkscape:connector-curvature="0"
     id="path4285"
     d="M 6,8.6909998 6,13.309 2,15.5 2,6.4999998 Z"
     style="fill:#363dbe;fill-opacity:1;fill-rule:evenodd;stroke:none;stroke-width:1px;stroke-linecap:butt;stroke-linejoin:miter;stroke-opacity:1" />
  <path
     sodipodi:nodetypes="ccccc"
     inkscape:connector-curvature="0"
     id="path4291"
     d="m 15.499653,14.175627 -3.999306,2.309 0.102539,4.559602 7.794228,-4.5 z"
     style="fill:#9d2c34;fill-opacity:1;fill-rule:evenodd;stroke:none;stroke-width:1px;stroke-linecap:butt;stroke-linejoin:miter;stroke-opacity:1" />
  <path
     style="fill:#3695ba;fill-opacity:1;fill-rule:evenodd;stroke:none;stroke-width:1px;stroke-linecap:butt;stroke-linejoin:miter;stroke-opacity:1"
     d="m 10.499653,5.5153728 -3.9993057,2.309 -3.8974616,-2.3686016 7.7942283,-4.5 z"
     id="path4293"
     inkscape:connector-curvature="0"
     sodipodi:nodetypes="ccccc" />
  <path
     style="fill:#b93780;fill-opacity:1;fill-rule:evenodd;stroke:none;stroke-width:1px;stroke-linecap:butt;stroke-linejoin:miter;stroke-opacity:1"
     d="m 10.499653,16.484628 -3.9993057,-2.309001 -3.8974617,2.368602 7.7942284,4.5 z"
     id="path4295"
     inkscape:connector-curvature="0"
     sodipodi:nodetypes="ccccc" />
  <path
     sodipodi:nodetypes="ccccc"
     inkscape:connector-curvature="0"
     id="path4297"
     d="M 15.499653,7.8243733 11.500347,5.515373 11.602886,0.9557714 19.397114,5.4557711 Z"
     style="fill:#8eb335;fill-opacity:1;fill-rule:evenodd;stroke:none;stroke-width:1px;stroke-linecap:butt;stroke-linejoin:miter;stroke-opacity:1" />
</svg>

<svg xmlns="http://www.w3.org/2000/svg" viewBox="0 0 22 22">
 <path d="m 11 15.619 -4 -2.309 0 -4.619 4 -2.309 4 2.31 0 4.618 z" style="fill:#f8c100;opacity:1;fill-opacity:1;stroke:none;fill-rule:nonzero"/>
 <path d="m 16 8.691 0 4.618 4 2.191 0 -9" style="fill:#cf8c3b;fill-opacity:1;stroke:none;fill-rule:evenodd"/>
 <path d="m 6 8.691 0 4.618 -4 2.191 0 -9" style="fill:#363dbe;fill-opacity:1;stroke:none;fill-rule:evenodd"/>
 <path d="m 15.5 14.176 -3.999 2.309 0.103 4.56 7.794 -4.5 z" style="fill:#9d2c34;fill-opacity:1;stroke:none;fill-rule:evenodd"/>
 <path d="m 10.5 5.515 -3.999 2.309 -3.897 -2.369 7.794 -4.5 z" style="fill:#3695ba;fill-opacity:1;stroke:none;fill-rule:evenodd"/>
 <path d="m 10.5 16.485 -3.999 -2.309 -3.897 2.369 7.794 4.5 z" style="fill:#b93780;fill-opacity:1;stroke:none;fill-rule:evenodd"/>
 <path d="m 15.5 7.824 -3.999 -2.309 0.103 -4.56 7.794 4.5" style="fill:#8eb335;fill-opacity:1;stroke:none;fill-rule:evenodd"/>
</svg>
